svg/airplane_clock.svg

<svg xmlns="http://www.w3.org/2000/svg" viewBox="0 0 24 24"><path d="M16 9c-.91 0-1.77.18-2.57.5l-.7-3.05 3.89-3.89c.58-.56.58-1.53 0-2.12s-1.54-.586-2.12 0l-3.89 3.89-9.2-2.12L0 3.62 7.43 7.5l-3.89 3.9-2.48-.35L0 12.11l3.18 1.76 1.77 3.19L6 16l-.34-2.5 3.89-3.87 1.02 1.96A6.995 6.995 0 0 0 16 23c3.87 0 7-3.13 7-7s-3.13-7-7-7m0 12c-2.76 0-5-2.24-5-5s2.24-5 5-5 5 2.24 5 5-2.24 5-5 5m.5-4.75V12H15v5l3.61 2.16.75-1.22z"/></svg>

<svg xmlns="http://www.w3.org/2000/svg" id="mdi-airplane-clock" viewBox="0 0 24 24"><path d="M16 9C15.09 9 14.23 9.18 13.43 9.5L12.73 6.45L16.62 2.56C17.2 2 17.2 1.03 16.62 .44S15.08-.146 14.5 .44L10.61 4.33L1.41 2.21L0 3.62L7.43 7.5L3.54 11.4L1.06 11.05L0 12.11L3.18 13.87L4.95 17.06L6 16L5.66 13.5L9.55 9.63L10.57 11.59C9.59 12.79 9 14.33 9 16C9 19.87 12.13 23 16 23S23 19.87 23 16 19.87 9 16 9M16 21C13.24 21 11 18.76 11 16S13.24 11 16 11 21 13.24 21 16 18.76 21 16 21M16.5 16.25V12H15V17L18.61 19.16L19.36 17.94L16.5 16.25Z" /></svg>
